led-variant-off.svg

<svg fill="currentColor" viewBox="0 0 24 24"><path d="M12 3c-1.95 0-3.57 1.4-3.92 3.25L16.82 15H18v-2h-2V7a4 4 0 0 0-4-4M3.28 4 2 5.27l6 6V13H6v2h3v6h2v-6h.73L13 16.27V21h2v-2.73L18.73 22 20 20.72l-5-5-7-7z"/></svg>

<svg  viewBox="0 0 24 24" fill="currentColor"><path  d="M12,3C10.05,3 8.43,4.4 8.08,6.25L16.82,15H18V13H16V7A4,4 0 0,0 12,3M3.28,4L2,5.27L8,11.27V13H6V15H9V21H11V15H11.73L13,16.27V21H15V18.27L18.73,22L20,20.72L15,15.72L8,8.72L3.28,4Z"/></svg>
